X:30
T:THE HOMECOMING DANCE/JJ'S Reel - Variation #   2    2 X THRU
M:2/4
L:1/8
C:G. Meikle
S:John Chambers ABC DANCE SETS
R:Reel
K:G
D2 ||:"G"GFED "/B"EDB,G, | "C"CB,CD "Am"E2G2 | "G/B"D^CDE "Em"GABG | "A/C#"ABAG "D7"FDEF |!
| "G"GFED "/B" EDB,G, | "C"CB,CE "A/C#"E2G2 | "G/D"DGBG "D7"ADFA |1 "G"G4 "G" GD"D7"EF :|2 "G"G4 "G" GD"D7"GA |!
|"G"BDDB "/B" D2BD   | "C"cEEc "Am" E2cE | "G"BDDB "/B" D2BD | "A"ABAG"D7"FDGA |!
| "G"BDDB "/B" D2BD   | "C"cEEc "Am"E2cE | "G/B"BAGB "D7"AGFA | "G"G4 "G" GD"D7"GA|!
|"G"BDDB "/B" dDBD   | "C"cEEc "Am"eEcE | "G"BDDB "/B" dDBD | "A" ABAG"D7" FDEF |!
| "G"GFED "/B"EDB,G, | "C"CB,CD "A/C#"E2G2 | "G/D"DGBG "D7"ADFA |1 "G"G4"G" GD"D7"EF :|2"G"GBde "G" g4 |]
